X:137
T:Paddy Cronin's
T:Across the Road
R:slide
H:Also played in Ador #107
D:Jack Talty & Cormac Begley: "Na Fir Bolg"
Z:id:hn-slide-137
M:6/8
L:1/8
K:Edor
EFG F2D | E2F G2A | B2E GFE | B2E GFE |
D2F FED | E2F G2A | B2E GFE | F2E D3 :|
|: ded c2d | e2d cBA | B2E GFE | B2E GFE |
ded c2d | e2d cBA | B2E GFE | F2E D3 :|

